src/next/res/im30823.svg

<svg height="16" width="16" xmlns="http://www.w3.org/2000/svg" xmlns:xlink="http://www.w3.org/1999/xlink"><filter id="a"><feGaussianBlur stdDeviation="2.4"/></filter><linearGradient id="b" gradientTransform="matrix(.1133598 0 0 .1691546 .642795 -76.95463)" gradientUnits="userSpaceOnUse" x1="399.77466" x2="399.77466" y1="681.00012" y2="549.33234"><stop offset="0" stop-color="#cbcbcd"/><stop offset=".5" stop-color="#e0e0e2"/><stop offset="1" stop-color="#fff"/></linearGradient><g transform="scale(.125)"><path d="m85.480617 232.8761h116.296063c1.02599 0 1.85197.97507 1.85197 2.18627v107.05603c0 1.21119-.82598 2.18627-1.85197 2.18627h-116.296063c-1.025991 0-1.85197-.97508-1.85197-2.18627v-107.05603c0-1.2112.825979-2.18627 1.85197-2.18627z" filter="url(#a)" opacity=".5" transform="matrix(1 0 0 .9333333 -79.62865 -205.35102)"/><path d="m7.999997 16h112.000003v96h-112.000003z" fill="url(#b)"/><path d="m78.20266 37.61897v-2.7448z" fill="#fff" fill-opacity=".756881"/><path d="m8 40h112v72h-112z" fill="#fff"/><g fill="#cacacc"><path d="m15.999997 72h16.000003v8h-16.000003z"/><path d="m15.999997 56h16.000003v8h-16.000003z"/><path d="m40 56h72v8h-72z"/><path d="m40 72h72v8h-72z"/><path d="m15.999997 88h16.000003v8h-16.000003z"/><path d="m40 88h72v8h-72z"/></g></g></svg>

<?xml version="1.0" encoding="UTF-8" standalone="no"?>
<svg
   xmlns:dc="http://purl.org/dc/elements/1.1/"
   xmlns:cc="http://creativecommons.org/ns#"
   xmlns:rdf="http://www.w3.org/1999/02/22-rdf-syntax-ns#"
   xmlns:svg="http://www.w3.org/2000/svg"
   xmlns="http://www.w3.org/2000/svg"
   xmlns:sodipodi="http://sodipodi.sourceforge.net/DTD/sodipodi-0.dtd"
   xmlns:inkscape="http://www.inkscape.org/namespaces/inkscape"
   height="16"
   width="16"
   version="1.1"
   id="svg262"
   sodipodi:docname="im30823.svg"
   inkscape:version="0.92.4 (unknown)">
  <metadata
     id="metadata268">
    <rdf:RDF>
      <cc:Work
         rdf:about="">
        <dc:format>image/svg+xml</dc:format>
        <dc:type
           rdf:resource="http://purl.org/dc/dcmitype/StillImage" />
        <dc:title></dc:title>
      </cc:Work>
    </rdf:RDF>
  </metadata>
  <defs
     id="defs266" />
  <sodipodi:namedview
     pagecolor="#ffffff"
     bordercolor="#666666"
     borderopacity="1"
     objecttolerance="10"
     gridtolerance="10"
     guidetolerance="10"
     inkscape:pageopacity="0"
     inkscape:pageshadow="2"
     inkscape:window-width="640"
     inkscape:window-height="480"
     id="namedview264"
     showgrid="true"
     inkscape:zoom="15.5"
     inkscape:cx="11.326228"
     inkscape:cy="14.09673"
     inkscape:current-layer="g5335">
    <inkscape:grid
       type="xygrid"
       id="grid5320" />
  </sodipodi:namedview>
  <filter
     id="a">
    <feGaussianBlur
       stdDeviation="2.4"
       id="feGaussianBlur2" />
  </filter>
  <linearGradient
     id="b"
     gradientTransform="matrix(0.1133598,0,0,0.1691546,0.642795,-76.95463)"
     gradientUnits="userSpaceOnUse"
     x1="399.77466"
     x2="399.77466"
     y1="681.00012"
     y2="549.33234">
    <stop
       offset="0"
       stop-color="#cbcbcd"
       id="stop5" />
    <stop
       offset=".5"
       stop-color="#e0e0e2"
       id="stop7" />
    <stop
       offset="1"
       stop-color="#fff"
       id="stop9" />
  </linearGradient>
  <g
     id="g5335"
     transform="scale(0.125)">
    <path
       d="M 85.480617,232.8761 H 201.77668 c 1.02599,0 1.85197,0.97507 1.85197,2.18627 V 342.1184 c 0,1.21119 -0.82598,2.18627 -1.85197,2.18627 H 85.480617 c -1.025991,0 -1.85197,-0.97508 -1.85197,-2.18627 V 235.06237 c 0,-1.2112 0.825979,-2.18627 1.85197,-2.18627 z"
       transform="matrix(1,0,0,0.9333333,-79.62865,-205.35102)"
       id="path12"
       inkscape:connector-curvature="0"
       style="opacity:0.5;filter:url(#a)" />
    <path
       d="M 7.999997,16 H 120 v 96 H 7.999997 Z"
       id="path90"
       style="fill:url(#b)"
       inkscape:connector-curvature="0" />
    <path
       d="m 78.20266,37.61897 v -2.7448 z"
       id="path118"
       inkscape:connector-curvature="0"
       style="fill:#ffffff;fill-opacity:0.756881" />
    <path
       inkscape:connector-curvature="0"
       id="path244"
       d="m 8,40 h 112 v 72 H 8 Z"
       style="fill:#ffffff" />
    <path
       d="M 15.999997,72 H 32 v 8 H 15.999997 Z"
       id="path248"
       inkscape:connector-curvature="0"
       style="fill:#cacacc" />
    <path
       d="M 15.999997,56 H 32 v 8 H 15.999997 Z"
       id="path250"
       inkscape:connector-curvature="0"
       style="fill:#cacacc" />
    <path
       d="m 40,56 h 72 v 8 H 40 Z"
       id="path252"
       inkscape:connector-curvature="0"
       style="fill:#cacacc" />
    <path
       d="m 40,72 h 72 v 8 H 40 Z"
       id="path254"
       inkscape:connector-curvature="0"
       style="fill:#cacacc" />
    <path
       d="M 15.999997,88 H 32 v 8 H 15.999997 Z"
       id="path256"
       inkscape:connector-curvature="0"
       style="fill:#cacacc" />
    <path
       d="m 40,88 h 72 v 8 H 40 Z"
       id="path258"
       inkscape:connector-curvature="0"
       style="fill:#cacacc" />
  </g>
</svg>
